X:50
T:Avoncroft
C:Pat Shaw, 1962
L:1/8
M:6/8
R:Jig
S:Colin Hume's website,  colinhume.com  - chords can also be printed below the stave.
Q:3/8=112
K:C
P:A
|: G | "C"e2f ^f2g | "Am"e3- ede | "Dm"f2e d2c | "E7"B3- BAB |\
"Am"c2d ^d2e | "Dm"f2e d2c | "G7"Bcd GAB |1 "C"c3-c2 :|2 "C"c3 "E7"B3 |
P:B
"A"A3 E2E | "D"^F3 B3 | "E7"A^G^F EFG | "A"A2B "E7"^cde |\
"A"A3 E2E | "D"^F3 B3 | "E7"A^G^F EFG | "A"A3 "G7"B3 |
"C"c3 G2G | "F"A3 d3 | "G7"cBA GAB | "C"c2d ^d2e |\
"Dm"f3 "G7"dfa | "C"g2e "Am"c2d | "Dm"e2c "G7"GBd | "C"c3- c3 |]
P:Last time, last four bars
"Fm"f3 "Bb7"c2d | "Eb"_e3 "G7"d3 | "C"c2G "G7"FED | "C"C3- C3 |]

